Origami/22x22/apps/groovy.svg

<svg width="22" height="22" version="1.1" viewBox="0 0 22 22" xmlns="http://www.w3.org/2000/svg">
 <g transform="translate(-1,-1)">
  <circle cx="12" cy="12.5" r="10" style="opacity:.2"/>
  <circle cx="12" cy="12" r="10" style="fill:#3f9142"/>
  <circle cx="12" cy="12.5" r="8" style="opacity:.1"/>
  <circle cx="12" cy="12" r="8" style="fill:#79de7d"/>
  <path d="m12.307 7.5c-1.064 0-1.999 0.2332-2.807 0.6992-0.8078 0.4611-1.426 1.1007-1.8555 1.9198-0.4294 0.819-0.6445 1.753-0.6445 2.803 0 1.109 0.2043 2.083 0.6133 2.922 0.409 0.834 1.013 1.486 1.8105 1.957 0.8022 0.466 1.7552 0.699 2.8592 0.699 1.569 0 2.748-0.387 3.535-1.162 0.788-0.779 1.182-1.927 1.182-3.443v-0.395h-4v1.5h2c-0.015 0.417-0.078 0.772-0.349 1.066-0.266 0.29-0.544 0.491-0.963 0.623-0.414 0.128-0.891 0.192-1.428 0.192-0.685 0-1.29-0.179-1.816-0.537-0.5219-0.358-0.9216-0.834-1.1977-1.428-0.2707-0.598-0.406-1.267-0.4063-2.002 5e-4 -1.093 0.3373-2 1.0118-2.715 0.6752-0.7212 1.4832-1.0803 2.4232-1.0803 0.583 0 1.096 0.147 1.541 0.4414 0.384 0.2538 0.667 0.5689 0.86 0.9399h2.002c-0.301-0.8849-0.793-1.6022-1.496-2.1391-0.747-0.5739-1.705-0.8613-2.875-0.8613z" style="fill:#ffffff;opacity:.2"/>
  <path d="m12.307 7c-1.064 0-1.999 0.2332-2.807 0.6992-0.8078 0.4611-1.426 1.1007-1.8555 1.9199-0.4294 0.8189-0.6445 1.7529-0.6445 2.8029 0 1.109 0.2043 2.083 0.6133 2.922 0.409 0.834 1.013 1.486 1.8105 1.957 0.8022 0.466 1.7552 0.699 2.8592 0.699 1.57 0 2.748-0.387 3.535-1.162 0.788-0.779 1.182-1.927 1.182-3.443v-0.395h-4v1.5h2c-0.015 0.417-0.079 0.772-0.35 1.066-0.265 0.29-0.543 0.491-0.963 0.623-0.414 0.128-0.89 0.192-1.427 0.192-0.685 0-1.29-0.179-1.817-0.537-0.5211-0.358-0.9208-0.834-1.1969-1.428-0.2707-0.598-0.406-1.267-0.4063-2.002 5e-4 -1.093 0.3373-1.999 1.0118-2.7151 0.6744-0.721 1.4834-1.0801 2.4234-1.0801 0.583 0 1.096 0.147 1.541 0.4414 0.384 0.2538 0.667 0.569 0.86 0.9395h2.002c-0.301-0.8845-0.793-1.6018-1.496-2.1387-0.747-0.5739-1.705-0.8613-2.875-0.8613z" style="fill:#3f9142"/>
  <path d="M 12,4 A 8,8 0 0 0 4,12 8,8 0 0 0 4.0098,12.293 8,8 0 0 1 12,4.5 8,8 0 0 1 19.99,12.207 8,8 0 0 0 20,12 8,8 0 0 0 12,4 Z" style="fill:#ffffff;opacity:.2"/>
  <path d="M 12,2 A 10,10 0 0 0 2,12 10,10 0 0 0 2.0098,12.293 10,10 0 0 1 12,2.5 10,10 0 0 1 21.99,12.207 10,10 0 0 0 22,12 10,10 0 0 0 12,2 Z" style="fill:#ffffff;opacity:.1"/>
 </g>
</svg>

<svg xmlns="http://www.w3.org/2000/svg" width="22" height="22" version="1.1" viewBox="0 0 22 22">
 <g transform="translate(-1,-1)">
  <circle style="opacity:0.2" cx="12" cy="12.5" r="10"/>
  <circle style="fill:#3f9142" cx="12" cy="12" r="10"/>
  <circle style="opacity:0.1" cx="12" cy="12.5" r="8"/>
  <circle style="fill:#79de7d" cx="12" cy="12" r="8"/>
  <path style="opacity:0.2;fill:#ffffff" d="M 12.307,7.5 C 11.243,7.5 10.308,7.7332 9.5,8.1992 8.6922,8.6603 8.074,9.2999 7.6445,10.119 7.2151,10.938 7,11.872 7,12.922 7,14.031 7.2043,15.005 7.6133,15.844 8.0223,16.678 8.6263,17.33 9.4238,17.801 10.226,18.267 11.179,18.5 12.283,18.5 13.852,18.5 15.031,18.113 15.818,17.338 16.606,16.559 17,15.411 17,13.895 V 13.5 H 13 V 15 H 15 C 14.985,15.417 14.922,15.772 14.651,16.066 14.385,16.356 14.107,16.557 13.688,16.689 13.274,16.817 12.797,16.881 12.26,16.881 11.575,16.881 10.97,16.702 10.444,16.344 9.9221,15.986 9.5224,15.51 9.2463,14.916 8.9756,14.318 8.8403,13.649 8.84,12.914 8.8405,11.821 9.1773,10.914 9.8518,10.199 10.527,9.4778 11.335,9.1187 12.275,9.1187 12.858,9.1187 13.371,9.2657 13.816,9.5601 14.2,9.8139 14.483,10.129 14.676,10.5 H 16.678 C 16.377,9.6151 15.885,8.8978 15.182,8.3609 14.435,7.787 13.477,7.4996 12.307,7.4996 Z"/>
  <path style="fill:#3f9142" d="M 12.307,7 C 11.243,7 10.308,7.2332 9.5,7.6992 8.6922,8.1603 8.074,8.7999 7.6445,9.6191 7.2151,10.438 7,11.372 7,12.422 7,13.531 7.2043,14.505 7.6133,15.344 8.0223,16.178 8.6263,16.83 9.4238,17.301 10.226,17.767 11.179,18 12.283,18 13.853,18 15.031,17.613 15.818,16.838 16.606,16.059 17,14.911 17,13.395 V 13 H 13 V 14.5 H 15 C 14.985,14.917 14.921,15.272 14.65,15.566 14.385,15.856 14.107,16.057 13.687,16.189 13.273,16.317 12.797,16.381 12.26,16.381 11.575,16.381 10.97,16.202 10.443,15.844 9.9219,15.486 9.5222,15.01 9.2461,14.416 8.9754,13.818 8.8401,13.149 8.8398,12.414 8.8403,11.321 9.1771,10.415 9.8516,9.6989 10.526,8.9779 11.335,8.6188 12.275,8.6188 12.858,8.6188 13.371,8.7658 13.816,9.0602 14.2,9.314 14.483,9.6292 14.676,9.9997 H 16.678 C 16.377,9.1152 15.885,8.3979 15.182,7.861 14.435,7.2871 13.477,6.9997 12.307,6.9997 Z"/>
  <path style="opacity:0.2;fill:#ffffff" d="M 12,4 A 8,8 0 0 0 4,12 8,8 0 0 0 4.0098,12.293 8,8 0 0 1 12,4.5 8,8 0 0 1 19.99,12.207 8,8 0 0 0 20,12 8,8 0 0 0 12,4 Z"/>
  <path style="opacity:0.1;fill:#ffffff" d="M 12,2 A 10,10 0 0 0 2,12 10,10 0 0 0 2.0098,12.293 10,10 0 0 1 12,2.5 10,10 0 0 1 21.99,12.207 10,10 0 0 0 22,12 10,10 0 0 0 12,2 Z"/>
 </g>
</svg>
